X:1
T:Standin In The Need of Prayer
T:We'll stand the storm
T:Copyright 1881 by The Riverside Press
T:Rodeheaver's Plantation Melodies
T:Rodeheaver's Plantation Melodies
Z:Rodeheaver's Plantation Melodies
%%score [ 1 2 3 4 ]
L:1/8
Q:1/4=100
M:2/2
K:F
V:1 treble nm="Soprano" snm="S."
V:2 treble nm="Alto" snm="A."
V:3 bass nm="Tenor" snm="T."
V:4 bass nm="Bass" snm="B."
V:1
 !fermata!c2 | A3 A G3 G | A3 A G3 G | A A3 B2 B2 | c6 z2 | A3 A G3 G | A3 A G3 C | A A3 (B G2) G | %8
 F6 || c2 | (e c2) c (c A2) A | B2 c4 F2 | A A3 B2 B2 | c6 c2 | (e c2) c (c A2) A | B2 c4 F2 | %16
 A A3 (B G2) G | F6!D.C.! |] %18
V:2
 !fermata!A2 | F3 F E3 E | F3 F E3 E | F F3 G2 G2 | A6 z2 | F3 F E3 E | F3 F E3 C | F F3 (G E2) E | %8
w: Oh,|stand the storm, it|won't be long. We'll|an- chor by- and-|by.|Stand the storm, it|won't be long. We'll|an- chor by- * and-|
 F6 || c2 | (e c2) c (c A2) A | B2 c4 F2 | F F3 G2 G2 | A6 c2 | (e c2) c (c A2) A | B2 c4 F2 | %16
w: by.|My|ship- * is on- * the|o- cean. We'll|an- chor by- and-|by. My|ship- * is on- * the|o- cean. We'll|
 F F3 (G E2) E | F6 |] %18
w: an- chor by- * and-|by.|
V:3
 !fermata!C2 | C3 C C3 C | C3 C C3 C | C C3 C2 C2 | C6 z2 | C3 C C3 C | C3 C C3 C | C C3 C3 B, | %8
 A,6 || C2 | (E C2) C (C A,2) A, | B,2 C4 A,2 | C C3 C2 C2 | C6 C2 | (E C2) C (C A,2) A, | %15
 B,2 C4 A,2 | C C3 C3 B, | A,6 |] %18
V:4
 !fermata!F,2 | F,3 F, C,3 C, | F,3 F, C,3 C, | F, F,3 F,2 F,2 | F,6 z2 | F,3 F, C,3 C, | %6
 F,3 F, C,3 C, | F, F,3 C,3 C, | F,6 || C2 | (E C2) C (C A,2) A, | B,2 C4 F,2 | F, F,3 F,2 F,2 | %13
 F,6 C2 | (E C2) C (C A,2) A, | B,2 C4 F,2 | F, F,3 C,3 C, | F,6 |] %18

